X: 3903
T: Blackberry Blossom, The
R: reel
M: 4/4
K: Gmajor
ge|"G"dBAc BGGA|.B2 .BA B2 ge|dBAc BA.A.G|"Am"eaag a2 ge|
"G"dBAc BGGA|B2 BA (3B^cd ge|dBAc BGGG|"Am"eaaa a>zef||
"G"~g2 gf gaba|"C"~g3 b "D7"agef|"G"~g2 gf gabg|"Am"eaaa agef|
"G"~g2 gf gaba|"C"~g3 b "D7"a2 ga|"G"bgaf "D7"gfed|"Am"eaag a2||

